custom_files/u169.svg

<svg width="19" height="19" viewBox="-237 211 19 19" xmlns="http://www.w3.org/2000/svg"><path d="M-227.5 211c5.32 0 9.5 4.18 9.5 9.5s-4.18 9.5-9.5 9.5-9.5-4.18-9.5-9.5 4.18-9.5 9.5-9.5z" fill="#aaa5a5"/><path d="M-227.5 211.5c5.04 0 9 3.96 9 9s-3.96 9-9 9-9-3.96-9-9 3.96-9 9-9z" stroke="#797979" fill="none"/></svg>

﻿<?xml version="1.0" encoding="utf-8"?>
<svg version="1.1" xmlns:xlink="http://www.w3.org/1999/xlink" width="19px" height="19px" viewBox="-237 211  19 19" xmlns="http://www.w3.org/2000/svg">
  <path d="M -227.5 211  C -222.18 211  -218 215.18  -218 220.5  C -218 225.82  -222.18 230  -227.5 230  C -232.82 230  -237 225.82  -237 220.5  C -237 215.18  -232.82 211  -227.5 211  Z " fill-rule="nonzero" fill="#aaa5a5" stroke="none" />
  <path d="M -227.5 211.5  C -222.46 211.5  -218.5 215.46  -218.5 220.5  C -218.5 225.54  -222.46 229.5  -227.5 229.5  C -232.54 229.5  -236.5 225.54  -236.5 220.5  C -236.5 215.46  -232.54 211.5  -227.5 211.5  Z " stroke-width="1" stroke="#797979" fill="none" />
</svg>
